X: 219
T: Donegal Lass
R: jig
M: 6/8
L: 1/8
K: Dmaj
Ace aed|cdB A3|GBd G3|FAd F3|
Ace aed|cdB A2a|aed cdB|ABA A3:|
GBd G3|FAd f3|e3 ecA| e3 ecA| 
GBd G3|FAd f2a|aed cdB|ABA A3:|

